packages/tokens/icons/limitSizeStorage/size24Px.svg

<svg viewBox="0 0 24 24" fill="none" xmlns="http://www.w3.org/2000/svg" width="1em" height="1em"><path d="M4.5 13.5L19.5 13.5C20.0523 13.5 20.5 13.9477 20.5 14.5V19.5C20.5 20.6046 19.6046 21.5 18.5 21.5H5.5C4.39543 21.5 3.5 20.6046 3.5 19.5L3.5 14.5C3.5 13.9477 3.94772 13.5 4.5 13.5Z" stroke="currentColor" stroke-linecap="round" stroke-linejoin="round"/><path d="M18 17C18 17.5523 17.5523 18 17 18C16.4477 18 16 17.5523 16 17C16 16.4477 16.4477 16 17 16C17.5523 16 18 16.4477 18 17Z" stroke="currentColor"/><path d="M19.5 11.5L4.5 11.5C3.78642 11.5 3.30247 10.7741 3.57692 10.1154L6.23715 3.73077C6.54769 2.98548 7.2759 2.5 8.08331 2.5L15.9166 2.5C16.724 2.5 17.4523 2.98547 17.7628 3.73077L20.4231 10.1154C20.6975 10.7741 20.2136 11.5 19.5 11.5Z" stroke="currentColor" stroke-linecap="round" stroke-linejoin="round"/></svg>

<svg xmlns="http://www.w3.org/2000/svg" fill="none" viewBox="0 0 24 24" width="1em" height="1em"><path stroke="currentColor" stroke-linecap="round" stroke-linejoin="round" d="M4.5 13.5h15a1 1 0 0 1 1 1v5a2 2 0 0 1-2 2h-13a2 2 0 0 1-2-2v-5a1 1 0 0 1 1-1Z"/><path stroke="currentColor" d="M18 17a1 1 0 1 1-2 0 1 1 0 0 1 2 0Z"/><path stroke="currentColor" stroke-linecap="round" stroke-linejoin="round" d="M19.5 11.5h-15a1 1 0 0 1-.923-1.385l2.66-6.384A2 2 0 0 1 8.083 2.5h7.834a2 2 0 0 1 1.846 1.23l2.66 6.385A1 1 0 0 1 19.5 11.5Z"/></svg>
